X: 16
T: Paddy O'Rafferty
R: jig
M: 6/8
L: 1/8
K: Gmaj
GAB D3|GAB AGE|GAB DBD|~G2G GED|
GAB d3|GAB d2e|dBB AGA|BGF ~G2G:|
d2B d2B|d (3Bcd ~A2A|dBB d2B|~G2G GED|
dBB d2B|d (3Bcd ~g2e|dBB AGA|BGF ~G2G:|


Tune 741	Setting 8088

